X: 16
T: Clerkenwell Assembly
R: jig
M: 12/8
L: 1/8
Z: 2010,2014 John Chambers <jc:trillian.mit.edu>
B: Longman ed. "Twenty Four Country Dances", p.32 London 1770
K: A
|: c2d edc Bcd cBA | agf edc  BcA GFE | c2d  edc Bcd cBA | agf gfe Bc^d e3 :|
|: BGE dcB ced cBA | ecA =gfe fag fed | f^dB agf gba gfe | cec dBG A3  A,3 :|
% - - - - - - - - - - - - - - - - - - - - - - - - -
%%begintext align
%% Hands Six round .|
%% 1st Cu: Set to the 2d woman dont turn,
%% the same to the 2d Man :|
%% Cross over two Cu: :|.
%% lead up to the Top Cast off :|:
%% foot tothe 3d Cu: four hands round .|.
%% then to the Top Cu: and four hands round .|.
%% Lead out Sides :||:
%%endtext
% - - - - - - - - - - - - - - - - - - - - - - - - -
